;FLAVOR:Marlin
;TIME:7909
;Filament used: 6.13643m
;Layer height: 0.28
;MINX:82.861
;MINY:71.5
;MINZ:0.28
;MAXX:155.861
;MAXY:163.5
;MAXZ:35
;Generated with Cura_SteamEngine 5.4.0
M140 S50
M105
M190 S50
M104 S200
M105
M109 S200
M82 ;absolute extrusion mode
; Ender 3 Custom Start G-code
G92 E0 ; Reset Extruder
G28 ; Home all axes
G1 Z2.0 F3000 ; Move Z Axis up little to prevent scratching of Heat Bed
G1 X0.1 Y20 Z0.3 F5000.0 ; Move to start position
G1 X0.1 Y200.0 Z0.3 F1500.0 E15 ; Draw the first line
G1 X0.4 Y200.0 Z0.3 F5000.0 ; Move to side a little
G1 X0.4 Y20 Z0.3 F1500.0 E30 ; Draw the second line
G92 E0 ; Reset Extruder
G1 Z2.0 F3000 ; Move Z Axis up little to prevent scratching of Heat Bed
G1 X5 Y20 Z0.3 F5000.0 ; Move over to prevent blob squish
G92 E0
G92 E0
G1 F2700 E-5
;LAYER_COUNT:125
;LAYER:0
M107
G0 F6000 X85.592 Y75.265 Z0.28
;TYPE:SKIRT
G1 F2700 E0
G1 F1200 X86.317 Y74.513 E0.04864
G1 X87.053 Y73.876 E0.09396
G1 X87.785 Y73.346 E0.13605
G1 X88.682 Y72.811 E0.18468
G1 X89.56 Y72.39 E0.23002
G1 X90.473 Y72.048 E0.27542
G1 X91.41 Y71.789 E0.32068
G1 X92.377 Y71.611 E0.36647
G1 X93.516 Y71.515 E0.41969
G1 X94.173 Y71.5 E0.45029
G1 X144.165 Y71.5 E2.77813
G1 X145.045 Y71.513 E2.81911
G1 X146.017 Y71.572 E2.86445
G1 X146.98 Y71.718 E2.90981
G1 X147.927 Y71.949 E2.9552
G1 X148.815 Y72.249 E2.99884
G1 X149.707 Y72.639 E3.04417
G1 X150.59 Y73.126 E3.09113
G1 X151.341 Y73.628 E3.13319
G1 X152.156 Y74.286 E3.18197
G1 X152.854 Y74.964 E3.22728
G1 X153.49 Y75.701 E3.27261
G1 X154.06 Y76.491 E3.31797
G1 X154.522 Y77.267 E3.36002
G1 X154.976 Y78.209 E3.40871
G1 X155.305 Y79.087 E3.45237
G1 X155.574 Y80.059 E3.49933
G1 X155.751 Y81.025 E3.54506
G1 X155.846 Y82.155 E3.59787
G1 X155.861 Y82.83 E3.62931
G1 X155.86 Y151.9 E6.84549
G1 X155.849 Y152.663 E6.88103
G1 X155.792 Y153.636 E6.92641
G1 X155.647 Y154.599 E6.97176
G1 X155.418 Y155.545 E7.01708
G1 X155.107 Y156.469 E7.06248
G1 X154.715 Y157.36 E7.1078
G1 X154.247 Y158.212 E7.15307
G1 X153.725 Y158.993 E7.19681
G1 X153.092 Y159.778 E7.24376
G1 X152.467 Y160.429 E7.28579
G1 X151.678 Y161.117 E7.33453
G1 X150.918 Y161.667 E7.37822
G1 X150.051 Y162.184 E7.42522
G1 X149.173 Y162.606 E7.47058
G1 X148.262 Y162.948 E7.51589
G1 X147.323 Y163.209 E7.56127
G1 X146.357 Y163.387 E7.60701
G1 X145.206 Y163.485 E7.6608
G1 X144.531 Y163.5 E7.69224
G1 X94.425 Y163.499 E10.02538
G1 X93.692 Y163.488 E10.05952
G1 X92.72 Y163.431 E10.10486
G1 X91.757 Y163.285 E10.15021
G1 X90.811 Y163.056 E10.19553
G1 X89.887 Y162.744 E10.24094
G1 X88.997 Y162.352 E10.28623
G1 X88.174 Y161.901 E10.32993
G1 X87.335 Y161.34 E10.37692
G1 X86.631 Y160.774 E10.41899
G1 X85.878 Y160.049 E10.46766
G1 X85.241 Y159.313 E10.51298
G1 X84.711 Y158.582 E10.55503
G1 X84.175 Y157.685 E10.60368
G1 X83.753 Y156.807 E10.64904
G1 X83.411 Y155.895 E10.6944
G1 X83.151 Y154.957 E10.73972
G1 X82.973 Y153.988 E10.7856
G1 X82.875 Y152.803 E10.84097
G1 X82.862 Y152.184 E10.8698
G1 X82.867 Y143.949 E11.25325
G1 X82.88 Y143.194 E11.28841
G1 X82.94 Y142.223 E11.33371
G1 X83.078 Y141.302 E11.37708
G1 X83.2 Y140.753 E11.40326
G1 X83.815 Y138.269 E11.52242
G1 X84.364 Y135.76 E11.64202
G1 X84.826 Y133.33 E11.75719
G1 X85.226 Y130.833 E11.87495
G1 X85.556 Y128.334 E11.99232
G1 X85.812 Y125.857 E12.10827
G1 X86.003 Y123.302 E12.22758
G1 X86.118 Y120.797 E12.34434
G1 X86.163 Y118.286 E12.46129
G1 X86.137 Y115.773 E12.57831
G1 X86.039 Y113.254 E12.69569
G1 X85.874 Y110.768 E12.81171
G1 X85.63 Y108.214 E12.93117
G1 X85.325 Y105.756 E13.0465
G1 X84.945 Y103.277 E13.16328
G1 X84.491 Y100.777 E13.2816
G1 X83.975 Y98.338 E13.39768
G1 X83.18 Y95.083 E13.5537
G1 X82.995 Y94.138 E13.59854
G1 X82.874 Y92.794 E13.66138
G1 X82.861 Y92.17 E13.69044
G1 X82.862 Y83.025 E14.11627
G1 X82.873 Y82.325 E14.14887
G1 X82.931 Y81.352 E14.19426
G1 X83.077 Y80.389 E14.23961
G1 X83.307 Y79.443 E14.28494
G1 X83.62 Y78.52 E14.33033
G1 X84.012 Y77.63 E14.37561
G1 X84.482 Y76.777 E14.42096
G1 X85.025 Y75.969 E14.46629
G1 X85.592 Y75.265 E14.50838
G0 F6000 X85.904 Y75.516
G1 F1200 X86.579 Y74.815 E14.5537
G1 X87.288 Y74.2 E14.5974
G1 X88.02 Y73.67 E14.63948
G1 X88.856 Y73.171 E14.68482
G1 X89.701 Y72.764 E14.72849
G1 X90.58 Y72.433 E14.77222
G1 X91.483 Y72.182 E14.81587
G1 X92.411 Y72.01 E14.85981
G1 X93.55 Y71.914 E14.91304
G1 X94.182 Y71.9 E14.94247
G1 X144.159 Y71.9 E17.26961
G1 X145.021 Y71.912 E17.30975
G1 X145.958 Y71.968 E17.35346
G1 X146.886 Y72.107 E17.39716
G1 X147.799 Y72.328 E17.4409
G1 X148.655 Y72.616 E17.48295
G1 X149.547 Y73.006 E17.52828
G1 X150.368 Y73.459 E17.57195
G1 X151.119 Y73.961 E17.61401
G1 X151.878 Y74.573 E17.65941
G1 X152.552 Y75.226 E17.70311
G1 X153.166 Y75.935 E17.74678
G1 X153.716 Y76.696 E17.7905
G1 X154.178 Y77.472 E17.83255
G1 X154.601 Y78.349 E17.87789
G1 X154.93 Y79.227 E17.92155
G1 X155.181 Y80.132 E17.96528
G1 X155.352 Y81.059 E18.00918
G1 X155.447 Y82.189 E18.06198
G1 X155.461 Y82.83 E18.09183
G1 X155.46 Y151.895 E21.30779
G1 X155.45 Y152.64 E21.34248
G1 X155.396 Y153.577 E21.38619
G1 X155.258 Y154.506 E21.42992
G1 X155.039 Y155.418 E21.47359
G1 X154.741 Y156.308 E21.5173
G1 X154.364 Y157.168 E21.56102
G1 X153.914 Y157.99 E21.60466
G1 X153.392 Y158.771 E21.6484
G1 X152.803 Y159.501 E21.69208
G1 X152.178 Y160.152 E21.7341
G1 X151.443 Y160.793 E21.77951
G1 X150.683 Y161.343 E21.82319
G1 X149.877 Y161.824 E21.8669
G1 X149.032 Y162.232 E21.91059
G1 X148.154 Y162.563 E21.95428
G1 X147.25 Y162.816 E21.998
G1 X146.323 Y162.988 E22.0419
G1 X145.172 Y163.086 E22.09569
G1 X144.531 Y163.1 E22.12554
G1 X94.431 Y163.099 E24.45841
G1 X93.715 Y163.089 E24.49175
G1 X92.779 Y163.035 E24.53541
G1 X91.85 Y162.896 E24.57915
G1 X90.938 Y162.677 E24.62282
G1 X90.048 Y162.378 E24.66654
G1 X89.189 Y162.001 E24.71022
G1 X88.366 Y161.55 E24.75392
G1 X87.586 Y161.028 E24.79762
G1 X86.882 Y160.462 E24.83968
G1 X86.18 Y159.787 E24.88503
G1 X85.565 Y159.078 E24.92873
G1 X85.035 Y158.347 E24.97078
G1 X84.535 Y157.511 E25.01614
G1 X84.127 Y156.666 E25.05983
G1 X83.796 Y155.788 E25.10352
G1 X83.544 Y154.884 E25.14722
G1 X83.372 Y153.955 E25.19121
G1 X83.275 Y152.794 E25.24546
G1 X83.262 Y152.184 E25.27387
G1 X83.267 Y143.956 E25.65701
G1 X83.279 Y143.218 E25.69137
G1 X83.336 Y142.282 E25.73504
G1 X83.474 Y141.361 E25.7784
G1 X83.588 Y140.849 E25.80283
G1 X84.206 Y138.355 E25.92247
G1 X84.755 Y135.846 E26.04206
G1 X85.219 Y133.405 E26.15776
G1 X85.623 Y130.885 E26.2766
G1 X85.953 Y128.386 E26.39398
G1 X86.21 Y125.898 E26.51045
G1 X86.402 Y123.332 E26.63026
G1 X86.518 Y120.815 E26.74759
G1 X86.563 Y118.293 E26.86504
G1 X86.537 Y115.769 E26.98258
G1 X86.439 Y113.239 E27.10047
G1 X86.273 Y110.741 E27.21705
G1 X86.028 Y108.176 E27.33703
G1 X85.722 Y105.707 E27.45287
G1 X85.339 Y103.206 E27.57069
G1 X84.885 Y100.706 E27.689
G1 X84.364 Y98.243 E27.80623
G1 X83.573 Y95.006 E27.96139
G1 X83.388 Y94.061 E28.00623
G1 X83.274 Y92.786 E28.06584
G1 X83.261 Y92.17 E28.09453
G1 X83.262 Y83.031 E28.52008
G1 X83.272 Y82.348 E28.55188
G1 X83.327 Y81.411 E28.59559
G1 X83.466 Y80.483 E28.63928
G1 X83.686 Y79.571 E28.68297
G1 X83.986 Y78.681 E28.7267
G1 X84.363 Y77.822 E28.77038
G1 X84.814 Y77 E28.81404
G1 X85.337 Y76.22 E28.85777
G1 X85.904 Y75.516 E28.89986
G0 F6000 X86.216 Y75.767
G1 F1200 X86.842 Y75.117 E28.94188
G1 X87.523 Y74.524 E28.98393
G1 X88.255 Y73.994 E29.02601
G1 X89.03 Y73.531 E29.06805
G1 X89.843 Y73.138 E29.11009
G1 X90.688 Y72.818 E29.15217
G1 X91.557 Y72.575 E29.19419
G1 X92.445 Y72.409 E29.23625
G1 X93.584 Y72.313 E29.28948
G1 X94.191 Y72.3 E29.31775
G1 X144.154 Y72.3 E31.64423
G1 X144.998 Y72.311 E31.68354
G1 X145.9 Y72.364 E31.72561
G1 X146.793 Y72.496 E31.76764
G1 X147.671 Y72.707 E31.80969
G1 X148.527 Y72.995 E31.85174
G1 X149.354 Y73.357 E31.89378
G1 X150.146 Y73.792 E31.93586
G1 X150.897 Y74.294 E31.97792
G1 X151.6 Y74.861 E32.01997
G1 X152.25 Y75.488 E32.06203
G1 X152.842 Y76.17 E32.10408
G1 X153.372 Y76.901 E32.14612
G1 X153.834 Y77.677 E32.18818
G1 X154.227 Y78.49 E32.23022
G1 X154.545 Y79.335 E32.27226
G1 X154.788 Y80.205 E32.31433
G1 X154.953 Y81.093 E32.35638
G1 X155.048 Y82.223 E32.40919
G1 X155.061 Y82.83 E32.43746
G1 X155.06 Y151.89 E35.65318
G1 X155.051 Y152.617 E35.68703
G1 X155 Y153.519 E35.7291
G1 X154.869 Y154.413 E35.77118
G1 X154.66 Y155.291 E35.8132
G1 X154.374 Y156.148 E35.85527
G1 X154.013 Y156.976 E35.89733
G1 X153.581 Y157.768 E35.93934
G1 X153.08 Y158.52 E35.98141
G1 X152.514 Y159.224 E36.02348
G1 X151.889 Y159.875 E36.0655
G1 X151.208 Y160.469 E36.10758
G1 X150.477 Y161 E36.14965
G1 X149.703 Y161.464 E36.19167
G1 X148.89 Y161.858 E36.23374
G1 X148.046 Y162.178 E36.27577
G1 X147.176 Y162.423 E36.31785
G1 X146.289 Y162.589 E36.35987
G1 X145.138 Y162.687 E36.41366
G1 X144.531 Y162.7 E36.44193
G1 X94.436 Y162.699 E38.77457
G1 X93.738 Y162.69 E38.80707
G1 X92.837 Y162.639 E38.84909
G1 X91.943 Y162.507 E38.89117
G1 X91.065 Y162.298 E38.9332
G1 X90.208 Y162.011 E38.97528
G1 X89.381 Y161.65 E39.0173
G1 X88.588 Y161.217 E39.05937
G1 X87.837 Y160.716 E39.10141
G1 X87.133 Y160.15 E39.14347
G1 X86.482 Y159.524 E39.18552
G1 X85.889 Y158.843 E39.22757
G1 X85.359 Y158.112 E39.26961
G1 X84.895 Y157.337 E39.31167
G1 X84.501 Y156.524 E39.35374
G1 X84.181 Y155.68 E39.39577
G1 X83.937 Y154.81 E39.43785
G1 X83.771 Y153.922 E39.47991
G1 X83.674 Y152.761 E39.53416
G1 X83.662 Y152.184 E39.56103
G1 X83.667 Y143.962 E39.94389
G1 X83.678 Y143.242 E39.97742
G1 X83.732 Y142.341 E40.01945
G1 X83.865 Y141.447 E40.06153
G1 X83.976 Y140.945 E40.08547
G1 X84.597 Y138.441 E40.2056
G1 X85.146 Y135.932 E40.32519
G1 X85.612 Y133.48 E40.44141
G1 X86.02 Y130.937 E40.56134
G1 X86.35 Y128.438 E40.67871
G1 X86.608 Y125.939 E40.7957
G1 X86.801 Y123.362 E40.91603
G1 X86.918 Y120.833 E41.03392
G1 X86.963 Y118.3 E41.15188
G1 X86.937 Y115.765 E41.26993
G1 X86.839 Y113.224 E41.38834
G1 X86.672 Y110.714 E41.50547
G1 X86.426 Y108.138 E41.62596
G1 X86.119 Y105.658 E41.74233
G1 X85.733 Y103.134 E41.86122
G1 X85.278 Y100.634 E41.97954
G1 X84.753 Y98.148 E42.09785
G1 X83.962 Y94.911 E42.25302
G1 X83.786 Y94.025 E42.29508
G1 X83.674 Y92.777 E42.35343
G1 X83.661 Y92.17 E42.3817
G1 X83.662 Y83.036 E42.80701
G1 X83.671 Y82.371 E42.83798
G1 X83.723 Y81.469 E42.88005
G1 X83.855 Y80.576 E42.92209
G1 X84.065 Y79.698 E42.96412
G1 X84.352 Y78.841 E43.00621
G1 X84.714 Y78.014 E43.04824
G1 X85.147 Y77.222 E43.09027
G1 X85.649 Y76.471 E43.13234
G1 X86.216 Y75.767 E43.17443
G1 F2700 E38.17443
G0 F6000 X93.208 Y93.153
G0 X100.715 Y96.033
G1 F2700 E43.17443
G1 F1200 X103.54 Y95.24 E43.31106
G1 X103.693 Y95.282 E43.31844
G1 X103.8 Y95.282 E43.32343
G1 X104.442 Y95.103 E43.35446
G1 X107.335 Y95.915 E43.49438
G1 X109.425 Y98.119 E43.63581
G1 X110.233 Y100.891 E43.77026
G1 X109.422 Y103.787 E43.91029
G1 X107.337 Y105.872 E44.0476
G1 X104.442 Y106.683 E44.18759
G1 X103.817 Y106.499 E44.21793
G1 X103.707 Y106.498 E44.22305
G1 X103.536 Y106.546 E44.23132
G1 X100.83 Y105.755 E44.36259
G1 X98.676 Y103.601 E44.50444
G1 X97.883 Y100.893 E44.63583
G1 X98.674 Y98.185 E44.76719
G1 X100.715 Y96.033 E44.9053
G0 F6000 X100.929 Y96.388
G1 F1200 X103.542 Y95.655 E45.03167
G1 X103.587 Y95.667 E45.03384
G1 X103.907 Y95.667 E45.04874
G1 X104.441 Y95.518 E45.07455
G1 X107.121 Y96.27 E45.20417
G1 X109.068 Y98.323 E45.33592
G1 X109.817 Y100.893 E45.46056
G1 X109.065 Y103.578 E45.5904
G1 X107.128 Y105.515 E45.71795
G1 X104.445 Y106.266 E45.84769
G1 X103.93 Y106.115 E45.87268
G1 X103.713 Y106.093 E45.88283
G1 X103.599 Y106.113 E45.88822
G1 X103.539 Y106.13 E45.89113
G1 X101.041 Y105.4 E46.01231
G1 X99.031 Y103.39 E46.14467
G1 X98.3 Y100.892 E46.26587
G1 X99.031 Y98.389 E46.38729
G1 X100.929 Y96.388 E46.51571
G0 F6000 X101.144 Y96.743
G1 F1200 X103.564 Y96.064 E46.63275
G1 X103.76 Y96.089 E46.64195
G1 X104.015 Y96.052 E46.65395
G1 X104.441 Y95.933 E46.67454
G1 X106.906 Y96.625 E46.79376
G1 X108.711 Y98.529 E46.91592
G1 X109.401 Y100.896 E47.03073
G1 X108.708 Y103.369 E47.15032
G1 X106.919 Y105.158 E47.26813
G1 X104.447 Y105.851 E47.38767
G1 X104.043 Y105.732 E47.40728
G1 X103.764 Y105.691 E47.42041
G1 X103.559 Y105.719 E47.43005
G1 X101.252 Y105.045 E47.54196
G1 X99.386 Y103.179 E47.66484
G1 X98.717 Y100.891 E47.77584
G1 X99.388 Y98.595 E47.88722
G1 X101.144 Y96.743 E48.00606
G0 F6000 X101.358 Y97.099
G1 F1200 X103.592 Y96.471 E48.11412
G1 X103.705 Y96.488 E48.11944
G1 X104.122 Y96.438 E48.139
G1 X104.441 Y96.349 E48.15442
G1 X106.692 Y96.981 E48.26329
G1 X108.354 Y98.733 E48.37573
G1 X108.985 Y100.899 E48.48079
G1 X108.352 Y103.159 E48.59007
G1 X106.709 Y104.802 E48.69826
G1 X104.45 Y105.435 E48.8075
G1 X104.156 Y105.348 E48.82178
G1 X103.827 Y105.293 E48.83731
G1 X103.612 Y105.317 E48.84739
G1 X101.462 Y104.689 E48.95168
G1 X99.741 Y102.968 E49.06501
G1 X99.134 Y100.892 E49.16573
G1 X99.745 Y98.799 E49.26726
G1 X101.358 Y97.099 E49.37638
G0 F6000 X101.573 Y97.454
G1 F1200 X103.612 Y96.881 E49.475
G1 X103.642 Y96.886 E49.47641
G1 X104.021 Y96.868 E49.49408
G1 X104.229 Y96.823 E49.50399
G1 X104.441 Y96.764 E49.51424
G1 X106.477 Y97.336 E49.61271
G1 X107.997 Y98.939 E49.71558
G1 X108.569 Y100.902 E49.81078
G1 X107.996 Y102.949 E49.90977
G1 X106.499 Y104.446 E50.00835
G1 X104.454 Y105.018 E50.10722
G1 X104.269 Y104.964 E50.1162
G1 X103.896 Y104.896 E50.13385
G1 X103.625 Y104.905 E50.14648
G1 X101.673 Y104.334 E50.24118
G1 X100.097 Y102.758 E50.34496
G1 X99.551 Y100.891 E50.43554
G1 X100.102 Y99.005 E50.52703
G1 X101.573 Y97.454 E50.62657
G0 F6000 X101.787 Y97.809
G1 F1200 X103.67 Y97.28 E50.71764
G1 X103.994 Y97.275 E50.73273
G1 X104.337 Y97.208 E50.749
G1 X104.44 Y97.179 E50.75399
G1 X106.263 Y97.691 E50.84216
G1 X107.64 Y99.143 E50.93534
G1 X108.153 Y100.904 E51.02075
G1 X107.639 Y102.74 E51.10952
G1 X106.29 Y104.089 E51.19836
G1 X104.458 Y104.602 E51.28695
G1 X104.382 Y104.58 E51.29063
G1 X103.97 Y104.501 E51.31016
G1 X103.67 Y104.501 E51.32413
G1 X101.884 Y103.979 E51.41078
G1 X100.451 Y102.546 E51.50514
G1 X99.967 Y100.893 E51.58534
G1 X100.459 Y99.209 E51.66704
G1 X101.787 Y97.809 E51.75689
G0 F6000 X102.002 Y98.164
G1 F1200 X103.729 Y97.679 E51.84042
G1 X103.96 Y97.68 E51.85117
G1 X104.44 Y97.595 E51.87387
G1 X106.048 Y98.046 E51.95164
G1 X107.283 Y99.349 E52.03523
G1 X107.737 Y100.905 E52.11071
G1 X107.28 Y102.535 E52.18953
G1 X106.085 Y103.73 E52.26823
G1 X104.45 Y104.188 E52.34729
G1 X104.048 Y104.107 E52.36638
G1 X103.721 Y104.099 E52.38161
G1 X102.092 Y103.623 E52.46064
G1 X100.806 Y102.337 E52.54532
G1 X100.384 Y100.893 E52.61538
G1 X100.816 Y99.415 E52.68708
G1 X102.002 Y98.164 E52.76735
G0 F6000 X102.216 Y98.519
G1 F1200 X103.778 Y98.081 E52.84288
G1 X103.92 Y98.084 E52.8495
G1 X104.412 Y98.002 E52.87272
G1 X105.834 Y98.401 E52.9415
G1 X106.927 Y99.553 E53.01544
G1 X107.321 Y100.907 E53.0811
G1 X106.924 Y102.325 E53.14967
G1 X105.875 Y103.374 E53.21875
G1 X104.434 Y103.777 E53.28842
G1 X104.128 Y103.714 E53.30297
G1 X103.778 Y103.699 E53.31928
G1 X102.303 Y103.268 E53.39084
G1 X101.162 Y102.127 E53.46597
G1 X100.801 Y100.893 E53.52584
G1 X101.173 Y99.619 E53.58764
G1 X102.216 Y98.519 E53.65823
G0 F6000 X102.431 Y98.874
G1 F1200 X103.818 Y98.485 E53.7253
G1 X103.876 Y98.487 E53.728
G1 X104.393 Y98.427 E53.75224
G1 X104.42 Y98.421 E53.75353
G1 X105.622 Y98.758 E53.81166
G1 X106.569 Y99.757 E53.87575
G1 X106.905 Y100.909 E53.93163
G1 X106.567 Y102.116 E53.99
G1 X105.666 Y103.017 E54.04933
G1 X104.421 Y103.366 E54.10953
G1 X104.211 Y103.321 E54.11954
G1 X103.841 Y103.3 E54.13679
G1 X102.514 Y102.913 E54.20116
G1 X101.517 Y101.916 E54.26681
G1 X101.217 Y100.893 E54.31645
G1 X101.529 Y99.825 E54.36826
G1 X102.431 Y98.874 E54.42929
G0 F6000 X102.643 Y99.231
G1 F1200 X103.883 Y98.883 E54.48926
G1 X104.376 Y98.836 E54.51232
G1 X104.4 Y98.831 E54.51347
G1 X105.407 Y99.113 E54.56216
G1 X106.213 Y99.963 E54.6167
G1 X106.489 Y100.912 E54.66272
G1 X106.21 Y101.907 E54.71084
G1 X105.457 Y102.66 E54.76043
G1 X104.41 Y102.954 E54.81107
G1 X104.295 Y102.929 E54.81655
G1 X103.904 Y102.902 E54.8348
G1 X102.724 Y102.557 E54.89204
G1 X101.872 Y101.705 E54.94815
G1 X101.634 Y100.893 E54.98755
G1 X101.886 Y100.029 E55.02946
G1 X102.643 Y99.231 E55.08068
G1 F2700 E50.08068
G0 F6000 X102.517 Y98.784
