;FLAVOR:Marlin
;TIME:9795
;Filament used: 7.86715m
;Layer height: 0.28
;MINX:84.26
;MINY:64.786
;MINZ:0.28
;MAXX:176.26
;MAXY:162
;MAXZ:35
;Generated with Cura_SteamEngine 5.4.0
M140 S50
M105
M190 S50
M104 S200
M105
M109 S200
M82 ;absolute extrusion mode
; Ender 3 Custom Start G-code
G92 E0 ; Reset Extruder
G28 ; Home all axes
G1 Z2.0 F3000 ; Move Z Axis up little to prevent scratching of Heat Bed
G1 X0.1 Y20 Z0.3 F5000.0 ; Move to start position
G1 X0.1 Y200.0 Z0.3 F1500.0 E15 ; Draw the first line
G1 X0.4 Y200.0 Z0.3 F5000.0 ; Move to side a little
G1 X0.4 Y20 Z0.3 F1500.0 E30 ; Draw the second line
G92 E0 ; Reset Extruder
G1 Z2.0 F3000 ; Move Z Axis up little to prevent scratching of Heat Bed
G1 X5 Y20 Z0.3 F5000.0 ; Move over to prevent blob squish
G92 E0
G92 E0
G1 F2700 E-5
;LAYER_COUNT:125
;LAYER:0
M107
G0 F6000 X87.985 Y77.513 Z0.28
;TYPE:SKIRT
G1 F2700 E0
G1 F1200 X88.671 Y76.821 E0.04537
G1 X89.379 Y76.219 E0.08865
G1 X89.991 Y75.743 E0.12475
G1 X90.816 Y75.16 E0.17179
G1 X91.596 Y74.705 E0.21384
G1 X92.454 Y74.298 E0.25805
G1 X93.237 Y73.967 E0.29764
G1 X94.033 Y73.666 E0.33726
G1 X95.823 Y73.072 E0.42508
G1 X98.164 Y72.245 E0.54069
G1 X100.523 Y71.332 E0.65848
G1 X102.897 Y70.336 E0.77836
G1 X105.13 Y69.326 E0.89248
G1 X107.45 Y68.195 E1.01266
G1 X109.963 Y66.884 E1.14464
G1 X110.816 Y66.481 E1.18857
G1 X111.969 Y66.069 E1.24558
G1 X112.823 Y65.819 E1.28702
G1 X114.543 Y65.336 E1.3702
G1 X115.258 Y65.147 E1.40464
G1 X116.21 Y64.942 E1.44999
G1 X117.177 Y64.821 E1.49537
G1 X118.15 Y64.786 E1.5407
G1 X119.052 Y64.831 E1.58275
G1 X120.049 Y64.97 E1.62963
G1 X120.837 Y65.144 E1.6672
G1 X121.776 Y65.39 E1.7124
G1 X123.497 Y65.872 E1.79562
G1 X124.19 Y66.078 E1.82929
G1 X125.055 Y66.376 E1.87189
G1 X126.241 Y66.84 E1.93119
G1 X128.724 Y67.771 E2.05467
G1 X131.089 Y68.583 E2.1711
G1 X133.49 Y69.331 E2.28821
G1 X135.916 Y70.013 E2.40555
G1 X138.335 Y70.619 E2.52167
G1 X140.835 Y71.171 E2.64088
G1 X143.302 Y71.643 E2.75784
G1 X145.782 Y72.045 E2.87483
G1 X148.233 Y72.372 E2.98997
G1 X150.8 Y72.641 E3.11015
G1 X153.266 Y72.828 E3.22531
G1 X155.767 Y72.947 E3.3419
G1 X158.901 Y73 E3.48785
G1 X161.711 Y73.001 E3.6187
G1 X162.441 Y73.013 E3.65269
G1 X163.313 Y73.061 E3.69336
G1 X164.083 Y73.148 E3.72944
G1 X164.631 Y73.229 E3.75523
G1 X165.586 Y73.415 E3.80054
G1 X166.455 Y73.663 E3.84262
G1 X167.11 Y73.904 E3.87512
G1 X167.877 Y74.213 E3.91362
G1 X168.762 Y74.619 E3.95896
G1 X169.578 Y75.083 E4.00267
G1 X170.362 Y75.623 E4.047
G1 X171.005 Y76.109 E4.08453
G1 X171.753 Y76.731 E4.12983
G1 X172.444 Y77.416 E4.17513
G1 X173.021 Y78.097 E4.2167
G1 X173.528 Y78.746 E4.25504
G1 X174.09 Y79.541 E4.30038
G1 X174.578 Y80.381 E4.34561
G1 X174.968 Y81.204 E4.38802
G1 X175.283 Y81.95 E4.42573
G1 X175.619 Y82.863 E4.47103
G1 X175.858 Y83.734 E4.51309
G1 X176.017 Y84.569 E4.55267
G1 X176.1 Y85.129 E4.57903
G1 X176.183 Y85.809 E4.61092
G1 X176.245 Y86.664 E4.65084
G1 X176.259 Y87.263 E4.67874
G1 X176.26 Y147.304 E7.4745
G1 X176.247 Y148.179 E7.51525
G1 X176.203 Y149.01 E7.554
G1 X176.113 Y149.819 E7.5919
G1 X176.03 Y150.379 E7.61826
G1 X175.851 Y151.3 E7.66195
G1 X175.585 Y152.23 E7.70699
G1 X175.359 Y152.844 E7.73746
G1 X175.051 Y153.609 E7.77586
G1 X174.646 Y154.494 E7.82118
G1 X174.165 Y155.34 E7.86649
G1 X173.662 Y156.071 E7.90781
G1 X173.155 Y156.741 E7.94693
G1 X172.533 Y157.49 E7.99227
G1 X171.847 Y158.18 E8.03757
G1 X171.156 Y158.768 E8.07982
G1 X170.502 Y159.276 E8.11838
G1 X169.706 Y159.837 E8.16373
G1 X168.896 Y160.309 E8.20738
G1 X168.066 Y160.703 E8.25016
G1 X167.326 Y161.017 E8.2876
G1 X166.413 Y161.354 E8.33291
G1 X165.542 Y161.594 E8.37498
G1 X164.593 Y161.77 E8.41992
G1 X163.737 Y161.89 E8.46017
G1 X162.648 Y161.984 E8.51107
G1 X162.003 Y161.999 E8.54111
G1 X98.956 Y162 E11.47684
G1 X98.08 Y161.987 E11.51764
G1 X97.245 Y161.942 E11.55658
G1 X96.407 Y161.848 E11.59584
G1 X95.857 Y161.765 E11.62174
G1 X94.97 Y161.593 E11.66381
G1 X93.976 Y161.306 E11.71199
G1 X93.41 Y161.096 E11.7401
G1 X92.65 Y160.79 E11.77825
G1 X91.766 Y160.384 E11.82355
G1 X90.92 Y159.903 E11.86886
G1 X90.193 Y159.403 E11.90995
G1 X89.511 Y158.887 E11.94977
G1 X88.763 Y158.265 E11.99507
G1 X88.072 Y157.58 E12.04037
G1 X87.478 Y156.88 E12.08312
G1 X86.995 Y156.258 E12.11979
G1 X86.424 Y155.447 E12.16598
G1 X85.939 Y154.608 E12.2111
G1 X85.57 Y153.832 E12.25111
G1 X85.245 Y153.068 E12.28977
G1 X84.917 Y152.189 E12.33346
G1 X84.658 Y151.253 E12.37868
G1 X84.5 Y150.424 E12.41798
G1 X84.423 Y149.906 E12.44236
G1 X84.34 Y149.233 E12.47394
G1 X84.273 Y148.251 E12.51977
G1 X84.26 Y147.567 E12.55163
G1 X84.261 Y87.549 E15.34632
G1 X84.273 Y86.819 E15.38031
G1 X84.319 Y85.964 E15.42018
G1 X84.403 Y85.222 E15.45496
G1 X84.486 Y84.651 E15.48182
G1 X84.67 Y83.694 E15.5272
G1 X84.924 Y82.797 E15.57061
G1 X85.169 Y82.128 E15.60379
G1 X85.472 Y81.38 E15.64136
G1 X85.879 Y80.495 E15.68672
G1 X86.344 Y79.681 E15.73037
G1 X86.865 Y78.924 E15.77317
G1 X87.352 Y78.277 E15.81087
G1 X87.985 Y77.513 E15.85707
G0 F6000 X88.27 Y77.794
G1 F1200 X88.93 Y77.126 E15.9008
G1 X89.625 Y76.535 E15.94328
G1 X90.237 Y76.059 E15.97938
G1 X91.018 Y75.506 E16.02394
G1 X91.798 Y75.051 E16.06599
G1 X92.61 Y74.666 E16.10783
G1 X93.378 Y74.341 E16.14667
G1 X94.159 Y74.046 E16.18554
G1 X95.949 Y73.452 E16.27336
G1 X98.305 Y72.619 E16.38972
G1 X100.678 Y71.701 E16.5082
G1 X103.052 Y70.705 E16.62808
G1 X105.305 Y69.686 E16.74322
G1 X107.625 Y68.555 E16.8634
G1 X109.17 Y67.756 E16.94439
G1 X110.134 Y67.246 E16.99517
G1 X110.987 Y66.843 E17.0391
G1 X112.082 Y66.453 E17.09323
G1 X112.931 Y66.204 E17.13443
G1 X114.646 Y65.723 E17.21736
G1 X115.343 Y65.538 E17.25094
G1 X116.26 Y65.339 E17.29464
G1 X117.192 Y65.221 E17.33838
G1 X118.13 Y65.186 E17.38209
G1 X119.032 Y65.231 E17.42414
G1 X119.993 Y65.366 E17.46933
G1 X120.736 Y65.531 E17.50477
G1 X121.668 Y65.775 E17.54963
G1 X123.383 Y66.255 E17.63256
G1 X124.06 Y66.456 E17.66544
G1 X124.909 Y66.748 E17.70725
G1 X126.101 Y67.215 E17.76686
G1 X128.584 Y68.146 E17.89034
G1 X130.97 Y68.965 E18.0078
G1 X133.371 Y69.713 E18.1249
G1 X135.819 Y70.401 E18.24331
G1 X138.249 Y71.01 E18.35996
G1 X140.749 Y71.562 E18.47917
G1 X143.234 Y72.037 E18.59698
G1 X145.718 Y72.44 E18.71416
G1 X148.191 Y72.77 E18.83033
G1 X150.761 Y73.039 E18.95066
G1 X153.247 Y73.228 E19.06675
G1 X155.748 Y73.347 E19.18334
G1 X158.894 Y73.4 E19.32985
G1 X161.705 Y73.401 E19.46074
G1 X162.419 Y73.412 E19.49399
G1 X163.268 Y73.459 E19.53358
G1 X164.025 Y73.544 E19.56906
G1 X164.555 Y73.622 E19.594
G1 X165.476 Y73.8 E19.63768
G1 X166.345 Y74.048 E19.67976
G1 X166.961 Y74.275 E19.71033
G1 X167.711 Y74.577 E19.74798
G1 X168.564 Y74.967 E19.79165
G1 X169.38 Y75.431 E19.83536
G1 X170.121 Y75.942 E19.87727
G1 X170.75 Y76.417 E19.91398
G1 X171.472 Y77.015 E19.95763
G1 X172.139 Y77.675 E20.00132
G1 X172.706 Y78.343 E20.04212
G1 X173.202 Y78.978 E20.07964
G1 X173.745 Y79.743 E20.12332
G1 X174.217 Y80.552 E20.16694
G1 X174.6 Y81.36 E20.20857
G1 X174.908 Y82.089 E20.24542
G1 X175.233 Y82.969 E20.28911
G1 X175.472 Y83.84 E20.33116
G1 X175.621 Y84.628 E20.3685
G1 X175.703 Y85.178 E20.3944
G1 X175.784 Y85.838 E20.42536
G1 X175.845 Y86.674 E20.46439
G1 X175.859 Y87.263 E20.49183
G1 X175.86 Y147.298 E23.28731
G1 X175.848 Y148.158 E23.32736
G1 X175.805 Y148.966 E23.36503
G1 X175.717 Y149.761 E23.40228
G1 X175.637 Y150.303 E23.42779
G1 X175.466 Y151.19 E23.46985
G1 X175.2 Y152.12 E23.51489
G1 X174.988 Y152.695 E23.54343
G1 X174.687 Y153.443 E23.58097
G1 X174.298 Y154.297 E23.62467
G1 X173.835 Y155.113 E23.66836
G1 X173.332 Y155.844 E23.70968
G1 X172.847 Y156.486 E23.74714
G1 X172.249 Y157.208 E23.79079
G1 X171.588 Y157.875 E23.83452
G1 X170.91 Y158.452 E23.87598
G1 X170.271 Y158.949 E23.91367
G1 X169.505 Y159.491 E23.95737
G1 X168.695 Y159.963 E24.00102
G1 X167.91 Y160.335 E24.04147
G1 X167.187 Y160.642 E24.07804
G1 X166.307 Y160.968 E24.12174
G1 X165.436 Y161.208 E24.16381
G1 X164.537 Y161.374 E24.20638
G1 X163.703 Y161.491 E24.24559
G1 X162.614 Y161.585 E24.29649
G1 X162.003 Y161.599 E24.32495
G1 X98.962 Y161.6 E27.2604
G1 X98.102 Y161.588 E27.30045
G1 X97.289 Y161.544 E27.33836
G1 X96.466 Y161.452 E27.37692
G1 X95.933 Y161.372 E27.40202
G1 X95.046 Y161.2 E27.44409
G1 X94.115 Y160.931 E27.48922
G1 X93.559 Y160.725 E27.51683
G1 X92.816 Y160.426 E27.55412
G1 X91.963 Y160.036 E27.59779
G1 X91.147 Y159.573 E27.64148
G1 X90.42 Y159.073 E27.68257
G1 X89.766 Y158.579 E27.72073
G1 X89.044 Y157.981 E27.76438
G1 X88.377 Y157.321 E27.80808
G1 X87.794 Y156.634 E27.85003
G1 X87.322 Y156.027 E27.88584
G1 X86.77 Y155.246 E27.93037
G1 X86.3 Y154.436 E27.97398
G1 X85.938 Y153.675 E28.01322
G1 X85.62 Y152.928 E28.05102
G1 X85.303 Y152.082 E28.09309
G1 X85.044 Y151.146 E28.13831
G1 X84.896 Y150.365 E28.17532
G1 X84.82 Y149.857 E28.19924
G1 X84.739 Y149.206 E28.22979
G1 X84.673 Y148.243 E28.27474
G1 X84.66 Y147.567 E28.30622
G1 X84.661 Y87.555 E31.10063
G1 X84.672 Y86.841 E31.13388
G1 X84.717 Y86.009 E31.17268
G1 X84.799 Y85.279 E31.20688
G1 X84.879 Y84.726 E31.2329
G1 X85.055 Y83.803 E31.27666
G1 X85.3 Y82.934 E31.3187
G1 X85.54 Y82.278 E31.35122
G1 X85.836 Y81.547 E31.38795
G1 X86.227 Y80.693 E31.43168
G1 X86.674 Y79.908 E31.47375
G1 X87.185 Y79.165 E31.51574
G1 X87.672 Y78.518 E31.55344
G1 X88.27 Y77.794 E31.59717
G0 F6000 X88.555 Y78.075
G1 F1200 X89.189 Y77.431 E31.63925
G1 X89.871 Y76.851 E31.68094
G1 X90.483 Y76.375 E31.71704
G1 X91.22 Y75.852 E31.75912
G1 X92 Y75.397 E31.80117
G1 X92.766 Y75.034 E31.84064
G1 X93.519 Y74.715 E31.87872
G1 X94.285 Y74.426 E31.91684
G1 X96.075 Y73.832 E32.00466
G1 X98.446 Y72.993 E32.12177
G1 X100.833 Y72.07 E32.24094
G1 X103.207 Y71.074 E32.36082
G1 X105.48 Y70.046 E32.47698
G1 X107.8 Y68.915 E32.59716
G1 X109.354 Y68.111 E32.67863
G1 X110.305 Y67.607 E32.72875
G1 X111.121 Y67.22 E32.7708
G1 X112.195 Y66.837 E32.8239
G1 X113.039 Y66.589 E32.86486
G1 X114.749 Y66.11 E32.94755
G1 X115.429 Y65.929 E32.98032
G1 X116.311 Y65.736 E33.02236
G1 X117.207 Y65.621 E33.06442
G1 X118.11 Y65.586 E33.1065
G1 X119.012 Y65.631 E33.14855
G1 X119.906 Y65.756 E33.19059
G1 X120.635 Y65.918 E33.22536
G1 X121.56 Y66.16 E33.26988
G1 X123.27 Y66.639 E33.35257
G1 X123.93 Y66.834 E33.38462
G1 X124.763 Y67.12 E33.42563
G1 X125.961 Y67.59 E33.48555
G1 X128.444 Y68.521 E33.60903
G1 X130.851 Y69.347 E33.72753
G1 X133.252 Y70.095 E33.84463
G1 X135.722 Y70.789 E33.96409
G1 X138.163 Y71.401 E34.08127
G1 X140.663 Y71.953 E34.20049
G1 X143.166 Y72.431 E34.31914
G1 X145.654 Y72.835 E34.43651
G1 X148.149 Y73.168 E34.55372
G1 X150.722 Y73.437 E34.67418
G1 X153.228 Y73.628 E34.79121
G1 X155.729 Y73.747 E34.9078
G1 X158.887 Y73.8 E35.05487
G1 X161.699 Y73.801 E35.18581
G1 X162.397 Y73.811 E35.21832
G1 X163.224 Y73.857 E35.25688
G1 X163.967 Y73.94 E35.2917
G1 X164.48 Y74.015 E35.31584
G1 X165.366 Y74.185 E35.35785
G1 X166.235 Y74.433 E35.39993
G1 X166.812 Y74.646 E35.42857
G1 X167.545 Y74.941 E35.46536
G1 X168.367 Y75.315 E35.50741
G1 X169.153 Y75.76 E35.54947
G1 X169.88 Y76.261 E35.59058
G1 X170.495 Y76.725 E35.62645
G1 X171.191 Y77.3 E35.66849
G1 X171.834 Y77.934 E35.71054
G1 X172.391 Y78.589 E35.75057
G1 X172.876 Y79.21 E35.78726
G1 X173.4 Y79.945 E35.8293
G1 X173.856 Y80.724 E35.87133
G1 X174.232 Y81.516 E35.91215
G1 X174.533 Y82.228 E35.94815
G1 X174.847 Y83.075 E35.99021
G1 X175.086 Y83.946 E36.03226
G1 X175.225 Y84.687 E36.06737
G1 X175.306 Y85.227 E36.0928
G1 X175.385 Y85.867 E36.12282
G1 X175.445 Y86.684 E36.16097
G1 X175.459 Y87.263 E36.18794
G1 X175.46 Y147.293 E38.98319
G1 X175.449 Y148.137 E39.02249
G1 X175.407 Y148.922 E39.05909
G1 X175.321 Y149.703 E39.09568
G1 X175.244 Y150.227 E39.12034
G1 X175.073 Y151.114 E39.16241
G1 X174.824 Y151.982 E39.20445
G1 X174.617 Y152.546 E39.23243
G1 X174.323 Y153.278 E39.26916
G1 X173.95 Y154.1 E39.31119
G1 X173.505 Y154.886 E39.35325
G1 X173.002 Y155.617 E39.39457
G1 X172.539 Y156.231 E39.43038
G1 X171.964 Y156.927 E39.47241
G1 X171.329 Y157.57 E39.51449
G1 X170.664 Y158.136 E39.55516
G1 X170.039 Y158.623 E39.59205
G1 X169.303 Y159.146 E39.63409
G1 X168.523 Y159.602 E39.67617
G1 X167.754 Y159.967 E39.7158
G1 X167.047 Y160.267 E39.75156
G1 X166.201 Y160.582 E39.7936
G1 X165.33 Y160.822 E39.83567
G1 X164.481 Y160.978 E39.87586
G1 X163.669 Y161.092 E39.91404
G1 X162.58 Y161.186 E39.96494
G1 X162.003 Y161.199 E39.99182
G1 X98.967 Y161.2 E42.92704
G1 X98.123 Y161.189 E42.96634
G1 X97.334 Y161.147 E43.00313
G1 X96.525 Y161.056 E43.04104
G1 X96.009 Y160.979 E43.06533
G1 X95.122 Y160.807 E43.1074
G1 X94.254 Y160.556 E43.14948
G1 X93.708 Y160.354 E43.17659
G1 X92.982 Y160.062 E43.21302
G1 X92.16 Y159.688 E43.25507
G1 X91.374 Y159.243 E43.29713
G1 X90.647 Y158.743 E43.33822
G1 X90.021 Y158.271 E43.37472
G1 X89.325 Y157.696 E43.41676
G1 X88.682 Y157.062 E43.45881
G1 X88.11 Y156.388 E43.49997
G1 X87.638 Y155.781 E43.53578
G1 X87.116 Y155.045 E43.57779
G1 X86.661 Y154.264 E43.61988
G1 X86.306 Y153.518 E43.65835
G1 X85.995 Y152.788 E43.6953
G1 X85.678 Y151.942 E43.73737
G1 X85.437 Y151.072 E43.7794
G1 X85.292 Y150.306 E43.8157
G1 X85.217 Y149.807 E43.8392
G1 X85.138 Y149.179 E43.86867
G1 X85.073 Y148.235 E43.91273
G1 X85.06 Y147.567 E43.94384
G1 X85.061 Y87.561 E46.73798
G1 X85.071 Y86.863 E46.77048
G1 X85.115 Y86.053 E46.80825
G1 X85.195 Y85.336 E46.84185
G1 X85.272 Y84.8 E46.86706
G1 X85.44 Y83.912 E46.90914
G1 X85.685 Y83.043 E46.95119
G1 X85.911 Y82.428 E46.98169
G1 X86.2 Y81.713 E47.01761
G1 X86.575 Y80.891 E47.05968
G1 X87.022 Y80.106 E47.10174
G1 X87.505 Y79.405 E47.14138
G1 X87.981 Y78.772 E47.17826
G1 X88.555 Y78.075 E47.2203
G1 F2700 E42.2203
G0 F6000 X112.309 Y81.736
G1 F2700 E47.2203
G1 F1200 X113.114 Y78.978 E47.35408
G1 X115.191 Y76.786 E47.4947
G1 X118.066 Y75.981 E47.63372
G1 X120.941 Y76.786 E47.77274
G1 X123.018 Y78.978 E47.91335
G1 X123.822 Y81.734 E48.04703
G1 X123.016 Y84.612 E48.1862
G1 X120.942 Y86.687 E48.32281
G1 X120.727 Y86.747 E48.3332
G1 X120.623 Y86.817 E48.33904
G1 X120.581 Y86.94 E48.34509
G1 X120.581 Y87.19 E48.35673
G1 X120.62 Y87.309 E48.36256
G1 X120.727 Y87.383 E48.36862
G1 X121.476 Y87.594 E48.40485
G1 X123.517 Y89.746 E48.54296
G1 X124.306 Y92.452 E48.67421
G1 X124.124 Y93.103 E48.70569
G1 X124.125 Y93.213 E48.71081
G1 X124.238 Y93.598 E48.72949
G1 X123.456 Y96.391 E48.86455
G1 X121.444 Y98.403 E48.99704
G1 X118.651 Y99.185 E49.1321
G1 X115.978 Y98.404 E49.26177
G1 X113.849 Y96.275 E49.40196
G1 X113.067 Y93.601 E49.53169
G1 X113.185 Y93.2 E49.55116
G1 X113.185 Y93.086 E49.55646
G1 X112.999 Y92.453 E49.58719
G1 X113.789 Y89.746 E49.71849
G1 X115.83 Y87.593 E49.85663
G1 X116.04 Y87.534 E49.86679
G1 X116.144 Y87.464 E49.87263
G1 X116.186 Y87.343 E49.87859
G1 X116.188 Y87.094 E49.89019
G1 X116.15 Y86.975 E49.896
G1 X116.044 Y86.9 E49.90205
G1 X115.31 Y86.687 E49.93764
G1 X113.115 Y84.493 E50.08215
G1 X112.309 Y81.736 E50.2159
G0 F6000 X112.726 Y81.736
G1 F1200 X113.471 Y79.184 E50.33969
G1 X115.406 Y77.141 E50.47072
G1 X118.066 Y76.396 E50.59935
G1 X120.726 Y77.141 E50.72797
G1 X122.661 Y79.183 E50.85897
G1 X123.406 Y81.736 E50.9828
G1 X122.659 Y84.403 E51.11177
G1 X120.733 Y86.33 E51.23863
G1 X120.619 Y86.362 E51.24415
G1 X120.423 Y86.458 E51.25431
G1 X120.275 Y86.618 E51.26446
G1 X120.193 Y86.82 E51.27461
G1 X120.181 Y86.94 E51.28022
G1 X120.181 Y87.19 E51.29187
G1 X120.221 Y87.405 E51.30205
G1 X120.334 Y87.591 E51.31218
G1 X120.507 Y87.724 E51.32234
G1 X120.618 Y87.768 E51.3279
G1 X121.262 Y87.95 E51.35907
G1 X123.16 Y89.95 E51.48745
G1 X123.89 Y92.454 E51.6089
G1 X123.739 Y92.996 E51.6351
G1 X123.72 Y93.213 E51.64525
G1 X123.741 Y93.325 E51.65055
G1 X123.822 Y93.601 E51.66395
G1 X123.099 Y96.182 E51.78875
G1 X121.235 Y98.046 E51.9115
G1 X118.654 Y98.769 E52.03631
G1 X116.189 Y98.049 E52.15589
G1 X114.204 Y96.064 E52.2866
G1 X113.483 Y93.6 E52.40615
G1 X113.568 Y93.313 E52.42009
G1 X113.591 Y93.096 E52.43025
G1 X113.569 Y92.973 E52.43607
G1 X113.416 Y92.452 E52.46135
G1 X114.146 Y89.95 E52.58271
G1 X116.044 Y87.949 E52.71113
G1 X116.149 Y87.919 E52.71622
G1 X116.344 Y87.822 E52.72636
G1 X116.493 Y87.662 E52.73654
G1 X116.574 Y87.46 E52.74667
G1 X116.586 Y87.346 E52.75201
G1 X116.588 Y87.097 E52.76361
G1 X116.55 Y86.882 E52.77377
